ui_kit/lib/assets/icons/mic_state_off.svg

<svg width="24" height="24" viewBox="0 0 24 24" fill="none" xmlns="http://www.w3.org/2000/svg">
<path fill-rule="evenodd" clip-rule="evenodd" d="M2.2438 2.2438C2.56887 1.91873 3.09398 1.91873 3.41905 2.2438L10.0202 8.84493C10.0463 8.86551 10.0714 8.88784 10.0955 8.9119L14.363 13.1795C14.3868 13.2033 14.4089 13.2282 14.4292 13.254L16.5715 15.3963C16.6342 15.4318 16.6932 15.4763 16.7468 15.5299C16.8012 15.5844 16.8468 15.6444 16.8834 15.7081L21.7562 20.581C22.0813 20.906 22.0813 21.4311 21.7562 21.7562C21.4311 22.0813 20.906 22.0813 20.581 21.7562L16.1084 17.2837C15.2961 17.9209 14.3459 18.3637 13.3294 18.5722C13.1662 18.6057 13.0022 18.633 12.8377 18.6542V20.3308H15.3382C15.7966 20.3308 16.1717 20.7059 16.1717 21.1643C16.1717 21.6228 15.7966 21.9978 15.3382 21.9978H12.018C12.0134 21.9979 12.0088 21.998 12.0042 21.998C11.9996 21.998 11.9949 21.9979 11.9903 21.9978H8.67012C8.2117 21.9978 7.83662 21.6311 7.83662 21.1643C7.83662 20.7059 8.2117 20.3308 8.67012 20.3308H11.1707V18.6587C10.582 18.5862 10.0018 18.4349 9.4453 18.2055C8.22005 17.6971 7.16983 16.8385 6.43634 15.73C5.71119 14.6214 5.32778 13.3211 5.33611 11.9959V10.3289C5.33611 9.87043 5.71119 9.49535 6.16962 9.49535C6.62805 9.49535 7.00313 9.87043 7.00313 10.3289V12.0042C6.99479 13.0044 7.28652 13.9796 7.83663 14.8048C8.38675 15.63 9.17858 16.2801 10.0954 16.6635C10.628 16.8842 11.1881 17.0082 11.7536 17.0356C11.8328 17.0105 11.917 16.9969 12.0042 16.9969C12.0904 16.9969 12.1737 17.0102 12.252 17.0348C12.5037 17.0218 12.7551 16.9897 13.0044 16.9386C13.6991 16.7961 14.3515 16.5097 14.9224 16.0977L13.6957 14.871C13.3757 15.0587 13.0245 15.192 12.6543 15.2632C12.4376 15.3132 12.2209 15.3299 12.0042 15.3299C11.5708 15.3299 11.1373 15.2466 10.7289 15.0715C10.1205 14.8215 9.60368 14.3964 9.23694 13.8463C8.86186 13.3045 8.67015 12.6627 8.67015 12.0042V9.8454L2.2438 3.41905C1.91873 3.09398 1.91873 2.56887 2.2438 2.2438ZM12.4307 13.6059L10.3456 11.5208L10.3372 11.5124V11.9959C10.3372 12.3293 10.4372 12.646 10.6206 12.9211C10.8039 13.1961 11.0623 13.4045 11.3707 13.5379C11.6708 13.6629 12.0042 13.6962 12.3293 13.6296C12.3607 13.6217 12.3922 13.6138 12.4307 13.6059ZM14.5047 10.6123C14.0463 10.6123 13.6712 10.2372 13.6712 9.77875V5.32782C13.6712 4.91107 13.5212 4.51932 13.2378 4.21092C12.9627 3.90253 12.5793 3.71082 12.1709 3.66915C11.7625 3.62747 11.3457 3.73583 11.0123 3.98588C10.6789 4.22759 10.4539 4.59434 10.3705 4.99442C10.2788 5.44451 9.83706 5.73624 9.38697 5.64456C8.93688 5.55287 8.64515 5.11945 8.73684 4.66935C8.90354 3.86085 9.36197 3.14404 10.0288 2.65227C10.6956 2.1605 11.5207 1.93545 12.3459 2.0188C13.1711 2.10215 13.9296 2.48557 14.488 3.10236C15.0298 3.71082 15.3382 4.50265 15.3382 5.33616V9.78709C15.3382 10.2455 14.9631 10.6123 14.5047 10.6123ZM18.6722 10.3289C18.6722 9.87043 18.2971 9.49535 17.8387 9.49535C17.3803 9.49535 17.0052 9.87043 17.0052 10.3289V11.9959C17.0052 12.2959 16.9802 12.5877 16.9219 12.8794C16.8385 13.3295 17.1469 13.7629 17.597 13.8463C18.0471 13.9296 18.4805 13.6212 18.5639 13.1711C18.6389 12.7794 18.6722 12.3876 18.6722 11.9959V10.3289Z" fill="white"/>
</svg>

<svg xmlns="http://www.w3.org/2000/svg" width="24" height="24" fill="none" viewBox="0 0 24 24"><path fill="#fff" fill-rule="evenodd" d="M2.244 2.244a.83.83 0 0 1 1.175 0l6.601 6.6c.026.022.051.044.075.068l4.268 4.268a.84.84 0 0 1 .066.074l2.143 2.142a.817.817 0 0 1 .311.312l4.873 4.873a.83.83 0 1 1-1.175 1.175l-4.473-4.472a6.676 6.676 0 0 1-3.27 1.37v1.677h2.5c.459 0 .834.375.834.833a.836.836 0 0 1-.834.834h-3.32a.635.635 0 0 1-.028 0H8.67a.83.83 0 0 1-.833-.834c0-.458.375-.833.833-.833h2.5v-1.672a6.663 6.663 0 0 1-4.734-2.929 6.748 6.748 0 0 1-1.1-3.734v-1.667c0-.459.375-.834.834-.834.458 0 .833.375.833.834v1.675c-.008 1 .284 1.976.834 2.8a5.075 5.075 0 0 0 2.258 1.86c.533.22 1.093.344 1.659.372a.828.828 0 0 1 .498-.001 4.986 4.986 0 0 0 2.67-.937l-1.226-1.227c-.32.188-.671.321-1.042.392-.216.05-.433.067-.65.067a3.23 3.23 0 0 1-1.275-.258 3.297 3.297 0 0 1-1.492-1.226 3.226 3.226 0 0 1-.567-1.842V9.845L2.244 3.42a.83.83 0 0 1 0-1.175ZM12.43 13.606l-2.085-2.085-.009-.009v.484c0 .333.1.65.284.925a1.7 1.7 0 0 0 .75.617 1.637 1.637 0 0 0 1.06.068Zm2.074-2.994a.836.836 0 0 1-.834-.833V5.328c0-.417-.15-.809-.433-1.117a1.657 1.657 0 0 0-1.067-.542 1.665 1.665 0 0 0-1.8 1.325.835.835 0 0 1-.984.65.827.827 0 0 1-.65-.975 3.342 3.342 0 0 1 5.751-1.567c.542.609.85 1.4.85 2.234v4.451a.829.829 0 0 1-.833.825Zm4.167-.283a.836.836 0 0 0-.833-.834.836.836 0 0 0-.834.834v1.667c0 .3-.025.592-.083.883a.837.837 0 0 0 .675.967.838.838 0 0 0 .967-.675 6.23 6.23 0 0 0 .108-1.175v-1.667Z" clip-rule="evenodd"/></svg>
